X: 113
M:4/4
L:1/8
Q:160
K:G
|: G3 A BABc|d3 e d2 ef|g2 f2 edef|d6 d2|G3 A BABc|d3 e d2 ef|g2 f2 edef|d6
|| f2 |g2 f2 g2 e2|d6 ef|g2 f2 g2 e2|d6 e2| f2 g2 f2 g2| d6 c2| B2 AA GFGA| G6||

